{
 "compressionlevel": -1,
 "height": 18,
 "infinite": false,
 "layers": [
  {
   "draworder": "topdown",
   "id": 1,
   "name": "pond",
   "objects": [
    {
     "ellipse": true,
     "height": 140,
     "id": 1,
     "name": "pond",
     "rotation": 0,
     "type": "",
     "visible": true,
     "width": 240,
     "x": 320,
     "y": 330
    }
   ],
   "opacity": 1,
   "type": "objectgroup",
   "visible": true,
   "x": 0,
   "y": 0
  },
  {
   "draworder": "topdown",
   "id": 2,
   "name": "path",
   "objects": [
    {
     "height": 0,
     "id": 2,
     "name": "path",
     "polyline": [
      {
       "x": 0,
       "y": 0
      },
      {
       "x": 300,
       "y": 0
      },
      {
       "x": 300,
       "y": -220
      },
      {
       "x": 660,
       "y": -220
      },
      {
       "x": 660,
       "y": 140
      },
      {
       "x": 1000,
       "y": 140
      },
      {
       "x": 1000,
       "y": -160
      },
      {
       "x": 1180,
       "y": -160
      }
     ],
     "rotation": 0,
     "type": "",
     "visible": true,
     "width": 0,
     "x": -40,
     "y": 420
    }
   ],
   "opacity": 1,
   "type": "objectgroup",
   "visible": true,
   "x": 0,
   "y": 0
  },
  {
   "draworder": "topdown",
   "id": 3,
   "name": "slots",
   "objects": [
    {
     "height": 0,
     "id": 3,
     "name": "",
     "point": true,
     "rotation": 0,
     "type": "",
     "visible": true,
     "width": 0,
     "x": 180,
     "y": 340
    },
    {
     "height": 0,
     "id": 4,
     "name": "",
     "point": true,
     "rotation": 0,
     "type": "",
     "visible": true,
     "width": 0,
     "x": 180,
     "y": 500
    },
    {
     "height": 0,
     "id": 5,
     "name": "",
     "point": true,
     "rotation": 0,
     "type": "",
     "visible": true,
     "width": 0,
     "x": 340,
     "y": 280
    },
    {
     "height": 0,
     "id": 6,
     "name": "",
     "point": true,
     "rotation": 0,
     "type": "",
     "visible": true,
     "width": 0,
     "x": 540,
     "y": 280
    },
    {
     "height": 0,
     "id": 7,
     "name": "",
     "point": true,
     "rotation": 0,
     "type": "",
     "visible": true,
     "width": 0,
     "x": 700,
     "y": 480
    },
    {
     "height": 0,
     "id": 8,
     "name": "",
     "point": true,
     "rotation": 0,
     "type": "",
     "visible": true,
     "width": 0,
     "x": 880,
     "y": 480
    },
    {
     "height": 0,
     "id": 9,
     "name": "",
     "point": true,
     "rotation": 0,
     "type": "",
     "visible": true,
     "width": 0,
     "x": 1050,
     "y": 340
    },
    {
     "height": 0,
     "id": 10,
     "name": "",
     "point": true,
     "rotation": 0,
     "type": "",
     "visible": true,
     "width": 0,
     "x": 470,
     "y": 110
    },
    {
     "height": 0,
     "id": 11,
     "name": "",
     "point": true,
     "rotation": 0,
     "type": "",
     "visible": true,
     "width": 0,
     "x": 840,
     "y": 150
    },
    {
     "height": 0,
     "id": 12,
     "name": "",
     "point": true,
     "rotation": 0,
     "type": "",
     "visible": true,
     "width": 0,
     "x": 1230,
     "y": 340
    },
    {
     "height": 0,
     "id": 13,
     "name": "",
     "point": true,
     "rotation": 0,
     "type": "",
     "visible": true,
     "width": 0,
     "x": 800,
     "y": 660
    },
    {
     "height": 0,
     "id": 14,
     "name": "",
     "point": true,
     "rotation": 0,
     "type": "",
     "visible": true,
     "width": 0,
     "x": 700,
     "y": 640
    }
   ],
   "opacity": 1,
   "type": "objectgroup",
   "visible": true,
   "x": 0,
   "y": 0
  },
  {
   "draworder": "topdown",
   "id": 4,
   "name": "sky",
   "objects": [
    {
     "height": 0,
     "id": 15,
     "name": "",
     "point": true,
     "rotation": 0,
     "type": "",
     "visible": true,
     "width": 0,
     "x": 400,
     "y": -40
    },
    {
     "height": 0,
     "id": 16,
     "name": "",
     "point": true,
     "rotation": 0,
     "type": "",
     "visible": true,
     "width": 0,
     "x": -40,
     "y": 720
    }
   ],
   "opacity": 1,
   "type": "objectgroup",
   "visible": true,
   "x": 0,
   "y": 0
  }
 ],
 "nextlayerid": 5,
 "nextobjectid": 17,
 "orientation": "orthogonal",
 "renderorder": "right-down",
 "tiledversion": "1.11.2",
 "tileheight": 40,
 "tilesets": [],
 "tilewidth": 40,
 "type": "map",
 "version": "1.10",
 "width": 32
}
