{
 "compressionlevel": -1,
 "height": 18,
 "infinite": false,
 "layers": [
  {
   "draworder": "topdown",
   "id": 1,
   "name": "pond",
   "objects": [
    {
     "height": 140,
     "id": 1,
     "name": "",
     "rotation": 0,
     "type": "",
     "visible": true,
     "width": 160,
     "x": 280.0,
     "y": 330.0,
     "ellipse": true
    }
   ],
   "opacity": 1,
   "type": "objectgroup",
   "visible": true,
   "x": 0,
   "y": 0
  },
  {
   "draworder": "topdown",
   "id": 2,
   "name": "path",
   "objects": [
    {
     "height": 0,
     "id": 2,
     "name": "",
     "rotation": 0,
     "type": "",
     "visible": true,
     "width": 0,
     "x": 200,
     "y": 760,
     "polyline": [
      {
       "x": 0,
       "y": 0
      },
      {
       "x": 0,
       "y": -560
      },
      {
       "x": 320,
       "y": -560
      },
      {
       "x": 320,
       "y": -240
      },
      {
       "x": 640,
       "y": -240
      },
      {
       "x": 640,
       "y": -460
      },
      {
       "x": 880,
       "y": -460
      }
     ]
    }
   ],
   "opacity": 1,
   "type": "objectgroup",
   "visible": true,
   "x": 0,
   "y": 0
  },
  {
   "draworder": "topdown",
   "id": 3,
   "name": "slots",
   "objects": [
    {
     "height": 0,
     "id": 3,
     "name": "",
     "rotation": 0,
     "type": "",
     "visible": true,
     "width": 0,
     "x": 100,
     "y": 300,
     "point": true
    },
    {
     "height": 0,
     "id": 4,
     "name": "",
     "rotation": 0,
     "type": "",
     "visible": true,
     "width": 0,
     "x": 100,
     "y": 460,
     "point": true
    },
    {
     "height": 0,
     "id": 5,
     "name": "",
     "rotation": 0,
     "type": "water",
     "visible": true,
     "width": 0,
     "x": 360,
     "y": 280,
     "point": true
    },
    {
     "height": 0,
     "id": 6,
     "name": "",
     "rotation": 0,
     "type": "",
     "visible": true,
     "width": 0,
     "x": 300,
     "y": 550,
     "point": true
    },
    {
     "height": 0,
     "id": 7,
     "name": "",
     "rotation": 0,
     "type": "",
     "visible": true,
     "width": 0,
     "x": 420,
     "y": 560,
     "point": true
    },
    {
     "height": 0,
     "id": 8,
     "name": "",
     "rotation": 0,
     "type": "",
     "visible": true,
     "width": 0,
     "x": 460,
     "y": 120,
     "point": true
    },
    {
     "height": 0,
     "id": 9,
     "name": "",
     "rotation": 0,
     "type": "",
     "visible": true,
     "width": 0,
     "x": 620,
     "y": 300,
     "point": true
    },
    {
     "height": 0,
     "id": 10,
     "name": "",
     "rotation": 0,
     "type": "hill",
     "visible": true,
     "width": 0,
     "x": 680,
     "y": 420,
     "point": true
    },
    {
     "height": 0,
     "id": 11,
     "name": "",
     "rotation": 0,
     "type": "",
     "visible": true,
     "width": 0,
     "x": 740,
     "y": 300,
     "point": true
    },
    {
     "height": 0,
     "id": 12,
     "name": "",
     "rotation": 0,
     "type": "",
     "visible": true,
     "width": 0,
     "x": 640,
     "y": 620,
     "point": true
    },
    {
     "height": 0,
     "id": 13,
     "name": "",
     "rotation": 0,
     "type": "hill",
     "visible": true,
     "width": 0,
     "x": 940,
     "y": 420,
     "point": true
    },
    {
     "height": 0,
     "id": 14,
     "name": "",
     "rotation": 0,
     "type": "hill",
     "visible": true,
     "width": 0,
     "x": 960,
     "y": 190,
     "point": true
    },
    {
     "height": 0,
     "id": 15,
     "name": "",
     "rotation": 0,
     "type": "",
     "visible": true,
     "width": 0,
     "x": 1165,
     "y": 420,
     "point": true
    }
   ],
   "opacity": 1,
   "type": "objectgroup",
   "visible": true,
   "x": 0,
   "y": 0
  },
  {
   "draworder": "topdown",
   "id": 4,
   "name": "sky",
   "objects": [
    {
     "height": 0,
     "id": 16,
     "name": "",
     "rotation": 0,
     "type": "",
     "visible": true,
     "width": 0,
     "x": -40,
     "y": 320,
     "point": true
    },
    {
     "height": 0,
     "id": 17,
     "name": "",
     "rotation": 0,
     "type": "",
     "visible": true,
     "width": 0,
     "x": 560,
     "y": 760,
     "point": true
    }
   ],
   "opacity": 1,
   "type": "objectgroup",
   "visible": true,
   "x": 0,
   "y": 0
  },
  {
   "draworder": "topdown",
   "id": 5,
   "name": "mud",
   "objects": [
    {
     "height": 70,
     "id": 18,
     "name": "",
     "rotation": 0,
     "type": "",
     "visible": true,
     "width": 160,
     "x": 600.0,
     "y": 485.0,
     "ellipse": true
    }
   ],
   "opacity": 1,
   "type": "objectgroup",
   "visible": true,
   "x": 0,
   "y": 0
  }
 ],
 "nextlayerid": 6,
 "nextobjectid": 19,
 "orientation": "orthogonal",
 "renderorder": "right-down",
 "tiledversion": "1.11.2",
 "tileheight": 40,
 "tilesets": [],
 "tilewidth": 40,
 "type": "map",
 "version": "1.10",
 "width": 32
}
